mobile/apps/auth/assets/custom-icons/icons/proton.svg

<svg xmlns="http://www.w3.org/2000/svg" fill="none" viewBox="0 0 500 500"><path fill="url(#a)" d="M52 369.795V500h91.481V375.43a45.678 45.678 0 0 1 13.397-32.314 45.766 45.766 0 0 1 32.344-13.384h93.798a165.106 165.106 0 0 0 116.658-48.303A164.795 164.795 0 0 0 448 164.872a164.796 164.796 0 0 0-48.327-116.573A165.112 165.112 0 0 0 282.995 0H52v162.756h91.481V86.023H276.83a78.12 78.12 0 0 1 55.205 22.84 77.97 77.97 0 0 1 22.88 55.146 77.966 77.966 0 0 1-22.871 55.161 78.12 78.12 0 0 1-55.214 22.849h-96.945a127.943 127.943 0 0 0-48.952 9.709 127.856 127.856 0 0 0-41.499 27.698 127.7 127.7 0 0 0-27.72 41.463A127.595 127.595 0 0 0 52 369.795Z"/><path fill="url(#b)" d="M189.196 329.731a137.282 137.282 0 0 0-97.008 40.15A137.014 137.014 0 0 0 52 466.798V500h91.481V375.429a45.676 45.676 0 0 1 13.388-32.304 45.765 45.765 0 0 1 32.327-13.394Z"/><defs><radialGradient id="a" cx="0" cy="0" r="1" gradientTransform="matrix(503.735 0 0 503.255 449.441 -69.422)" gradientUnits="userSpaceOnUse"><stop stop-color="#A995FF"/><stop offset="1" stop-color="#6652F5"/></radialGradient><linearGradient id="b" x1="120.598" x2="120.598" y1="475.374" y2="284.048" gradientUnits="userSpaceOnUse"><stop stop-color="#6D4BFD"/><stop offset="1" stop-color="#1C0554"/></linearGradient></defs></svg>

<svg width="500" height="500" viewBox="0 0 500 500" fill="none" xmlns="http://www.w3.org/2000/svg">
<path d="M52 369.795V500H143.481V375.43C143.481 363.31 148.3 351.686 156.878 343.116C165.456 334.547 177.09 329.732 189.222 329.732H283.02C326.779 329.719 368.74 312.345 399.678 281.429C430.615 250.513 447.997 208.589 448 164.872C448 121.15 430.616 79.2177 399.673 48.2988C368.729 17.38 326.759 0.00664019 282.995 0H52V162.756H143.481V86.023H276.83C297.535 86.023 317.393 94.2386 332.035 108.863C346.678 123.487 354.909 143.323 354.915 164.009C354.915 184.698 346.689 204.541 332.044 219.17C317.401 233.8 297.539 242.019 276.83 242.019H179.885C163.088 242.011 146.453 245.31 130.933 251.728C115.413 258.148 101.311 267.559 89.434 279.426C77.557 291.293 68.1375 305.383 61.7143 320.889C55.2912 336.395 51.9901 353.014 52 369.795Z" fill="url(#paint0_radial_122_119)"/>
<path d="M189.196 329.731C152.81 329.735 117.916 344.178 92.1875 369.881C66.459 395.586 52.0033 430.446 52 466.798L52 500H143.481V375.429C143.481 363.313 148.297 351.694 156.869 343.125C165.442 334.556 177.069 329.738 189.196 329.731Z" fill="url(#paint1_linear_122_119)"/>
<defs>
<radialGradient id="paint0_radial_122_119" cx="0" cy="0" r="1" gradientUnits="userSpaceOnUse" gradientTransform="translate(449.441 -69.4219) scale(503.735 503.255)">
<stop stop-color="#A995FF"/>
<stop offset="1" stop-color="#6652F5"/>
</radialGradient>
<linearGradient id="paint1_linear_122_119" x1="120.598" y1="475.374" x2="120.598" y2="284.048" gradientUnits="userSpaceOnUse">
<stop stop-color="#6D4BFD"/>
<stop offset="1" stop-color="#1C0554"/>
</linearGradient>
</defs>
</svg>
